world_stage/static/flags/rect/ssd.svg

<svg height="666.66669" viewBox="0 0 1000 666.66669" width="1000" xmlns="http://www.w3.org/2000/svg"><g transform="matrix(1.3333333 0 0 -1.3333333 0 666.66667)"><path d="m0 0h750v150h-750z" fill="#078930"/><path d="m0 150h750v200h-750z" fill="#fff"/><path d="m0 350h750v150h-750z"/><path d="m0 175h750v150h-750z" fill="#da121a"/></g><path d="m0 0v-500l365.896 250z" fill="#0f47af" transform="matrix(1.3333333 0 0 -1.3333333 0 -.000533)"/><path d="m0 0 144.722-47.022-89.443 123.106v-152.169l89.443 123.108z" fill="#fcdd09" transform="matrix(1.3333333 0 0 -1.3333333 67.116533 333.33333)"/></svg>

<?xml version="1.0" encoding="UTF-8" standalone="no"?>
<!-- Created with Inkscape (http://www.inkscape.org/) -->

<svg
   version="1.1"
   id="svg1"
   width="1000"
   height="666.66669"
   viewBox="0 0 1000 666.66669"
   sodipodi:docname="ss.ai"
   xmlns:inkscape="http://www.inkscape.org/namespaces/inkscape"
   xmlns:sodipodi="http://sodipodi.sourceforge.net/DTD/sodipodi-0.dtd"
   xmlns="http://www.w3.org/2000/svg"
   xmlns:svg="http://www.w3.org/2000/svg">
  <defs
     id="defs1" />
  <sodipodi:namedview
     id="namedview1"
     pagecolor="#ffffff"
     bordercolor="#000000"
     borderopacity="0.25"
     inkscape:showpageshadow="2"
     inkscape:pageopacity="0.0"
     inkscape:pagecheckerboard="0"
     inkscape:deskcolor="#d1d1d1">
    <inkscape:page
       x="0"
       y="0"
       inkscape:label="1"
       id="page1"
       width="1000"
       height="666.66669"
       margin="0"
       bleed="0" />
  </sodipodi:namedview>
  <g
     id="layer-MC0"
     inkscape:groupmode="layer"
     inkscape:label="Layer 1">
    <path
       id="path1"
       d="M 0,0 H 750 V 150 H 0 Z"
       style="fill:#078930;fill-opacity:1;fill-rule:nonzero;stroke:none"
       transform="matrix(1.3333333,0,0,-1.3333333,0,666.66667)" />
    <path
       id="path2"
       d="M 0,150 H 750 V 350 H 0 Z"
       style="fill:#ffffff;fill-opacity:1;fill-rule:nonzero;stroke:none"
       transform="matrix(1.3333333,0,0,-1.3333333,0,666.66667)" />
    <path
       id="path3"
       d="M 0,350 H 750 V 500 H 0 Z"
       style="fill:#000000;fill-opacity:1;fill-rule:nonzero;stroke:none"
       transform="matrix(1.3333333,0,0,-1.3333333,0,666.66667)" />
    <path
       id="path4"
       d="M 0,175 H 750 V 325 H 0 Z"
       style="fill:#da121a;fill-opacity:1;fill-rule:nonzero;stroke:none"
       transform="matrix(1.3333333,0,0,-1.3333333,0,666.66667)" />
    <path
       id="path5"
       d="m 0,0 v -500 l 365.896,250 z"
       style="fill:#0f47af;fill-opacity:1;fill-rule:nonzero;stroke:none"
       transform="matrix(1.3333333,0,0,-1.3333333,0,-5.3333333e-4)" />
    <path
       id="path6"
       d="M 0,0 144.722,-47.022 55.279,76.084 V -76.085 l 89.443,123.108 z"
       style="fill:#fcdd09;fill-opacity:1;fill-rule:nonzero;stroke:none"
       transform="matrix(1.3333333,0,0,-1.3333333,67.116533,333.33333)" />
  </g>
</svg>
